X:1
T:Engelska frn Nttraby
R:Engelska
D:Bjrlert, Lfberg, Pekkari - Mikaelidansen
Z:Transkription till abc av Jon Magnusson
O:Nttraby, Blekinge
M:2/4
L:1/8
K:A
ea ga| ea ga|ea ga| f2 d2|df ff| df ff|df af| f2 e2|
ea ga| ea ga|ea ga| f2 d2|de fg| af ec|B2 A2| A4:|
ce ee| ce ee|ce ee| fe dc|df ff| df ff|df af| f2 e2|
ce ee| ce ee|ce ee| fe dc|de fg| af ec|B2 A2| A4:|
